assets/img/icons/duotone-icons/Home/Commode#1.svg

<?xml version="1.0" encoding="UTF-8"?>
<svg width="24px" height="24px" viewBox="0 0 24 24" version="1.1" xmlns="http://www.w3.org/2000/svg" xmlns:xlink="http://www.w3.org/1999/xlink">
    <!-- Generator: Sketch 52.2 (67145) - http://www.bohemiancoding.com/sketch -->
    <title>Stockholm-icons / Home / Сommode#1</title>
    <desc>Created with Sketch.</desc>
    <g id="Stockholm-icons-/-Home-/-Сommode#1" stroke="none" stroke-width="1" fill="none" fill-rule="evenodd">
        <rect id="bound" x="0" y="0" width="24" height="24"></rect>
        <path d="M5.5,4 L18.5,4 C19.3284271,4 20,4.67157288 20,5.5 L20,9.5 C20,10.3284271 19.3284271,11 18.5,11 L5.5,11 C4.67157288,11 4,10.3284271 4,9.5 L4,5.5 C4,4.67157288 4.67157288,4 5.5,4 Z M11,6 C10.4477153,6 10,6.44771525 10,7 C10,7.55228475 10.4477153,8 11,8 L13,8 C13.5522847,8 14,7.55228475 14,7 C14,6.44771525 13.5522847,6 13,6 L11,6 Z" id="Combined-Shape" fill="#335EEA" opacity="0.3"></path>
        <path d="M5.5,13 L18.5,13 C19.3284271,13 20,13.6715729 20,14.5 L20,18.5 C20,19.3284271 19.3284271,20 18.5,20 L5.5,20 C4.67157288,20 4,19.3284271 4,18.5 L4,14.5 C4,13.6715729 4.67157288,13 5.5,13 Z M11,15 C10.4477153,15 10,15.4477153 10,16 C10,16.5522847 10.4477153,17 11,17 L13,17 C13.5522847,17 14,16.5522847 14,16 C14,15.4477153 13.5522847,15 13,15 L11,15 Z" id="Combined-Shape-Copy" fill="#335EEA"></path>
    </g>
</svg>

<svg width="24" height="24" viewBox="0 0 24 24" xmlns="http://www.w3.org/2000/svg"><g fill="none" fill-rule="evenodd"><path d="M0 0h24v24H0z"/><path d="M5.5 4h13A1.5 1.5 0 0120 5.5v4a1.5 1.5 0 01-1.5 1.5h-13A1.5 1.5 0 014 9.5v-4A1.5 1.5 0 015.5 4zM11 6a1 1 0 000 2h2a1 1 0 000-2h-2z" fill="#335EEA" opacity=".3"/><path d="M5.5 13h13a1.5 1.5 0 011.5 1.5v4a1.5 1.5 0 01-1.5 1.5h-13A1.5 1.5 0 014 18.5v-4A1.5 1.5 0 015.5 13zm5.5 2a1 1 0 000 2h2a1 1 0 000-2h-2z" fill="#335EEA"/></g></svg>
